symbolic/64x64/apps/comsol.svg

<svg xmlns="http://www.w3.org/2000/svg" width="64" height="64" version="1">
 <rect style="opacity:0.2" width="49.733" height="49.733" x="21.1" y="-24.16" rx="14.92" ry="14.92" transform="rotate(45)"/>
 <rect style="fill:#e4e4e4" width="49.733" height="49.733" x="20.39" y="-24.87" rx="14.92" ry="14.92" transform="rotate(45)"/>
 <path style="opacity:0.1" d="M 17,23.000001 A 5.9999995,10 0 0 0 11.000001,33 5.9999995,10 0 0 0 17,43 h 29.999998 a 5.9999995,10 0 0 0 6,-10 5.9999995,10 0 0 0 -6,-9.999999 z"/>
 <path style="fill:#3068c1" d="M 17,22 A 5.9999995,10 0 0 0 11.000002,32 5.9999995,10 0 0 0 17,42 h 29.999999 a 5.9999995,10 0 0 0 6,-10 5.9999995,10 0 0 0 -6,-10 z"/>
 <path style="opacity:0.2;fill:#ffffff" d="M 17 22 A 5.9999995 10 0 0 0 11 32 A 5.9999995 10 0 0 0 11.029297 33 L 17 33 L 17 22 z M 23 22 L 23 33 L 29 33 L 29 22 L 23 22 z M 35 22 L 35 33 L 41 33 L 41 22 L 35 22 z M 47 22 L 47 33 L 52.966797 33 A 5.9999995 10 0 0 0 53 32 A 5.9999995 10 0 0 0 47 22 z"/>
 <path style="opacity:0.2" d="M 17 22 L 17 33 L 23 33 L 23 22 L 17 22 z M 29 22 L 29 33 L 35 33 L 35 22 L 29 22 z M 41 22 L 41 33 L 47 33 L 47 22 L 41 22 z"/>
 <circle style="opacity:0.1" cx="17" cy="35" r="8"/>
 <circle style="fill:#ffa802" cx="17" cy="34" r="8"/>
 <circle style="opacity:0.1" cx="17" cy="35" r="5"/>
 <circle style="fill:#ffd264" cx="17" cy="34" r="5"/>
 <circle style="opacity:0.1" cx="17" cy="35" r="2"/>
 <circle style="fill:#ffe6bc" cx="17" cy="34" r="2"/>
 <path style="opacity:0.2;fill:#ffffff" d="M 32 3 C 28.1862 3 24.371551 4.4604826 21.449219 7.3828125 L 7.3828125 21.449219 C 4.3841082 24.447924 2.9608437 28.385877 3.0410156 32.298828 C 3.2056489 28.721956 4.6397754 25.192257 7.3828125 22.449219 L 21.449219 8.3828125 C 24.371551 5.4604826 28.1862 4 32 4 C 35.8138 4 39.628449 5.4604826 42.550781 8.3828125 L 56.617188 22.449219 C 59.360223 25.192257 60.794352 28.721956 60.958984 32.298828 C 61.039157 28.385877 59.61589 24.447924 56.617188 21.449219 L 42.550781 7.3828125 C 39.628449 4.4604826 35.8138 3 32 3 z"/>
</svg>

<svg xmlns="http://www.w3.org/2000/svg" width="64" height="64" version="1"><rect style="opacity:.2" width="49.733" height="49.733" x="21.1" y="-24.16" rx="14.92" ry="14.92" transform="rotate(45)"/><rect style="fill:#e4e4e4" width="49.733" height="49.733" x="20.39" y="-24.87" rx="14.92" ry="14.92" transform="rotate(45)"/><path style="opacity:.1" d="M17 23a6 10 0 0 0-6 10 6 10 0 0 0 6 10h30a6 10 0 0 0 6-10 6 10 0 0 0-6-10z"/><path style="fill:#3068c1" d="M17 22a6 10 0 0 0-6 10 6 10 0 0 0 6 10h30a6 10 0 0 0 6-10 6 10 0 0 0-6-10z"/><path style="opacity:.2;fill:#fff" d="M17 22a6 10 0 0 0-6 10 6 10 0 0 0 .03 1H17V22zm6 0v11h6V22h-6zm12 0v11h6V22h-6zm12 0v11h5.967A6 10 0 0 0 53 32a6 10 0 0 0-6-10z"/><path style="opacity:.2" d="M17 22v11h6V22h-6zm12 0v11h6V22h-6zm12 0v11h6V22h-6z"/><circle style="opacity:.1" cx="17" cy="35" r="8"/><circle style="fill:#ffa802" cx="17" cy="34" r="8"/><circle style="opacity:.1" cx="17" cy="35" r="5"/><circle style="fill:#ffd264" cx="17" cy="34" r="5"/><circle style="opacity:.1" cx="17" cy="35" r="2"/><circle style="fill:#ffe6bc" cx="17" cy="34" r="2"/><path style="opacity:.2;fill:#fff" d="M32 3c-3.814 0-7.628 1.46-10.55 4.383L7.382 21.449C4.384 24.448 2.96 28.386 3.04 32.3a14.828 14.828 0 0 1 4.342-9.85L21.449 8.383A14.874 14.874 0 0 1 32 4c3.814 0 7.628 1.46 10.55 4.383l14.067 14.066a14.828 14.828 0 0 1 4.342 9.85c.08-3.913-1.343-7.851-4.342-10.85L42.551 7.383A14.874 14.874 0 0 0 32 3z"/></svg>
